X: 230
T:Paddy the Dandy
% Nottingham Music Database
S:Jimmy MacKay, via EF
M:6/8
K:A
P:A
F|"A"EAA cBA|"A"eAA cBA|"D"aga "A"ecA|"Bm"Bdc "E7"BAF|
"A"EAA cBA|"A"eAA cBA|"D"aga "A"ecA|"E7"BAG "A"A2:|
P:B
c|"A"eaa caa|"E"bab agf|"A"eaa caa|"E7"bc'b agf|
"A"eaa caa|"E"bab gfe|"D"fga "A"ecA|"E7"BAG "A"A2:|<end>
<start>
